X: 43344
T: Worried Man, The
R: jig
M: 6/8
K: Ddorian
|:AGE DEG|ABc d2d|def edc|dcA GAc|
AGE DEG|ABc d2d|def edc|1 ABc d2A:|2 ABc d2e||
|:fga gec|ded dcA|c2c cde|dcA cde|
fga gec|ded dcA|cde dcA|1 GAc d2e:|2 GAc d3||

